X:1
T:Kodambakkam, 87.87.88.87
T:Kodambakkam, 87.87.88.87
T:James Henry Fillmore, Sr., 1881
T:Public Domain Courtesy of the Cyber Hymnal™
C:James Henry Fillmore, Sr., 1881
Z:Public Domain
Z:Courtesy of the Cyber Hymnal™
%%score ( 1 2 ) 3
L:1/8
Q:1/4=100
M:4/4
K:F
V:1 treble 
V:2 treble 
V:3 bass 
V:1
 [FA]3 [FA] [FA][FA][FB][FA] | [EG]4 [Ec]2 z2 | [EB]3 [EB] [GB][GB][FA][EG] | [FA]6 z2 | %4
 [FA]3 [FA] [FA][FA][FB][FA] | [EG]4 [Ec]2 z2 | [EB]3 [EB] [GB][GB][FA][EG] | F6 z2 | %8
 [Fc]3 [Fc] [Fd]2 [Fc]2 | [FA]3 [FA] [FB]2 [FA]2 | [EG]3 [EG] [EG][GB][FA][EG] | [FA]4 [Fc]2 z2 | %12
 [Fc]3 [Fc] [Fd]2 [Fc]2 | [FA]3 [FA] [FB]2 [FA]2 | [EG]3 [EG] [EG][GB][FA][EG] | F7 |] %16
V:2
 x8 | x8 | x8 | x8 | x8 | x8 | x8 | F6 x2 | x8 | x8 | x8 | x8 | x8 | x8 | x8 | F7 |] %16
V:3
 [F,C]3 [F,C] [F,C][F,C][F,D][F,C] | [C,C]4 [C,G,]2 z2 | [C,G,]3 [C,G,] [C,C][C,C][C,C][C,C] | %3
 [F,C]6 z2 | [F,C]3 [F,C] [F,C][F,C][F,D][F,C] | [C,C]4 [C,G,]2 z2 | %6
 [C,G,]3 [C,G,] [C,C][C,C][C,C][C,B,] | [F,A,]6 z2 | [F,A,]3 [F,A,] [F,B,]2 [F,A,]2 | %9
 [F,C]3 [F,C] [F,D]2 [F,C]2 | C3 C CCCC | [F,C]4 [F,A,]2 z2 | [F,A,]3 [F,A,] [F,B,]2 [F,A,]2 | %13
 [F,C]3 [F,C] [F,D]2 [F,C]2 | [C,C]3 [C,C] [C,C][C,C][C,C][C,B,] | [F,A,]7 |] %16

